Papirus/16x16/apps/filen.svg

<svg width="16" height="16" version="1.1" xmlns="http://www.w3.org/2000/svg">
 <circle cx="8" cy="8" r="8" style="fill:#444444"/>
 <path d="M 8.0000003,1 C 4.1339062,1 1,4.1339065 1,8.0000003 1,11.866094 4.1339062,15 8.0000003,15 11.866094,15 15,11.866094 15,8.0000003 15,4.1339065 11.866094,1 8.0000003,1 Z M 8,1.9999999 c 1.3387814,0 2.231764,0.2804589 3,0.724 v 2.276 H 4.9999999 v 2.0221875 l 1,-0.00163 V 5.9999999 H 12 v -2.55 c 1.42253,1.2528277 2,2.6493595 2,4.5500004 H 11 V 13.218 c -0.244182,0.140979 -0.707327,0.351579 -1,0.43 V 9 H 9 v 4.904 C 8.8416554,13.946428 8.5118774,14 8.0000003,14 7.04034,14.001473 6.5267522,13.898798 5.9999999,13.643 V 10 H 7 V 9 H 4.9999999 v 4.053 c -0.2132714,-0.123132 -0.7251143,-0.475156 -1,-0.7635 V 3.9999999 H 8 v -1 H 4.4039999 c 1.1029155,-0.6367683 2.2816223,-1 3.5960001,-1 z m -5.0000001,2.763 V 11.342 c 0,0 -1,-1.6571917 -1,-3.3419997 0,-1.6848081 1,-3.2370004 1,-3.2370004 z M 12,9 h 1.988 C 13.461471,10.965035 12.720843,11.775157 12,12.496 Z" style="fill:#e4e4e4"/>
 <circle cx="9.5" cy="8.5" r="1" style="fill:#e4e4e4"/>
 <circle cx="8" cy="3.5" r="1" style="fill:#e4e4e4"/>
 <circle cx="5.5" cy="7" r="1" style="fill:#e4e4e4"/>
 <circle cx="7.5" cy="9.5" r="1" style="fill:#e4e4e4"/>
</svg>

<svg xmlns="http://www.w3.org/2000/svg" width="16" height="16" version="1.1">
 <circle style="fill:#444444" cx="8" cy="8" r="8"/>
 <circle style="fill:#e4e4e4" cx="9.5" cy="8.5" r="1"/>
 <circle style="fill:#e4e4e4" cx="8" cy="3.5" r="1"/>
 <circle style="fill:#e4e4e4" cx="5.5" cy="7" r="1"/>
 <circle style="fill:#e4e4e4" cx="7.5" cy="9.5" r="1"/>
 <path style="fill:#e4e4e4" d="M 8,1 C 4.1339,1 1,4.1339 1,8 1,11.866 4.1339,15 8,15 11.866,15 15,11.866 15,8 15,4.1339 11.866,1 8,1 Z M 8,2 C 9.339,2 10.232,2.2805 11,2.724 V 5 H 5 V 7.0222 L 6,7.0206 V 6 H 12 V 3.45 C 13.423,4.7028 14,6.0994 14,8 H 11 V 13.218 C 10.756,13.359 10.293,13.57 10,13.648 V 9 H 9 V 13.904 C 8.8417,13.946 8.5119,14 8,14 7.0403,14.001 6.5268,13.899 6,13.643 V 10 H 7 V 9 H 5 V 13.053 C 4.7867,12.93 4.2749,12.578 4,12.29 V 4 H 8 V 3 H 4.404 C 5.5069,2.3632 6.6856,2 8,2 Z M 3,4.763 V 11.342 C 3,11.342 2,9.6848 2,8 2,6.3152 3,4.763 3,4.763 Z M 12,9 H 13.988 C 13.461,10.965 12.721,11.775 12,12.496 Z"/>
</svg>
